X:1
T:George Frideric Handel (1685 - 1759)
T:Transcribed for Recorder Trio in C minor from IMSLP#396680 - 396683 MIDI File
T:Trio Sonata Op.2 No.1 in B minor, HWV 386b
T:for Transverse flute, Violin & Continuo
T:Creative Commons Attribution 4.0 
T:Creative Commons Attribution 4.0 
T:Creative Commons Attribution 4.0 
T:Creative Commons Attribution 4.0 
T:Creative Commons Attribution 4.0 
T:Creative Commons Attribution 4.0 
C:George Frideric Handel (1685 - 1759)
Z:Creative Commons Attribution 4.0
%%score [ 1 2 3 ]
L:1/8
Q:1/4=54
M:4/4
K:Eb
V:1 treble nm="Alto Rec." snm="A."
V:2 treble nm="Tenor Rec." snm="T."
V:3 bass+8 nm="Bass Rec." snm="B."
V:1
"^I. Andante" ce/>d/ cc c/>=B/c z g/>d/ | de/>f/ e>d e/d/c z b/f/ | fg/a/ g>f g/f/e z/ g/c'/>g/ | %3
 f/>e/d z/ f/b/>f/ e/>d/c z/ e/a/>e/ | e/>d/g/>d/ d/>c/f/>c/ =B/>G/f- f/>a/g/>f/ | %5
 e/>d/c z2 z c'/>=b/ c'2- | c'/=b/c'/d'/ c'b/>c'/ c'e/>d/ e2- | e/d/e/f/ e>d .e3/2 z/4 G/4 c2 | %8
 z z3/4 F/4 B2 z z3/4 e/4 a2 | z2 z d' d'>c' =b/=a/g | g>f e/>d/c/>g/ a3/2 z/4 b/4 g3/2 z/4 a/4 | %11
 f/>d/e/f/ z g z/ e/f/g/ z a | z3/4 f/4g z3/4 e/4f z3/4 d/4e z3/4 c/4d | %13
 z3/4 B/4c z3/4 =A/<B/A/4 B/>A/B/>c/ A>B | B4 z4 | fa/>g/ ff g/>f/e z3/4 g/<c'/g/4 | %16
 f/>e/d z3/4 f/<b/f/4 e/>d/c z3/4 e/<a/e/4 | e/d/d/>g/ ^f/g/g3/4f/8g/8 =ad z3/4 d/<g/=f/4 | %18
 e/>d/e z3/4 c/<f/e/4 d/>c/d z3/4 B/<e/d/4 | c/>B/c z c' c'/>=a/b z3/4 g/4a | %20
 z3/4 ^f/4g z3/4 f/<g/f/4 g/>f/g/>=a/ f>g | g2 z2 ce/>d/ cc | c/>=B/c c>B c2 z/ =e/f/g/ | %23
 c/a/g/f/ =e>f f/g/a z/ d/e/f/ | z g z/ e/d/e/ z f z/ f/e/d/ | z e z/ e/d/e/ z/ e/d/e/ z/ e/d/e/ | %26
 d/>e/d/>e/ d/>e/d/>e/ d3/2c/4d/4 e2- | e2 d2 g2 z3/4 g/<c'/g/4 | %28
 f/>e/d z3/4 f/<b/f/4 e/>d/c z3/4 e/<a/e/4 | e/>d/g/>d/ d/>c/f/>c/ =B/>=A/G z/ a/g/f/ | %30
 e>d d>c ce/>d/ cc | c/>=B/c z2 df/>e/ dd | d2 z b c'/b/b/a/ a/g/a/b/ | g2 z a/>g/ fe/d/ ed/c/ | %34
 ce/>d/ e4 d2- | dc/>=B/ c2- c/B/c/d/ B>c | ce a2- aB g2- | g2 f2 g4 |] %38
[M:4/4][Q:1/4=100]"^II. Allegro" c2 d2 e2 z f/>e/ | d/>c/B z e c2 z d | =BG g2- gfed | cB A2 GGcd | %42
 =B2 Gc cBBd | dcce eddf | fedc g4- | gc'c'=b c'g a2- | ab g2- gc' f2- | fg/a/ gf edc=B | %48
 c2 z f B2 z A | G2 g6- | g8- | gg a2- ab g2- | ga/g/ fe dBBe | eddf feeg | gffa agfe | b4 b3 b | %56
 ba a2- abgf | g2 f>e e2 z2 | e2 f2 g2 z a | f3 g =ec c'2- | c'bag fg a2- | aagf edcB | %62
 A2 z _g =g3 f | edcB =A2 d2- | d8- | d6 dg | g_gg=a a=ggb | b=abg e3 f | d3 g c3 d | Bc d4 c2- | %70
 cdB=A B2 A>G | G2 z g gffe | ed z e eddc | c=BGc cBBd | dcce eddf | feeg gffa | g8- | g8- | %78
 g3 g gccf | f=eeg gffa | aggb baac' | c'b b2- bc'ag | a2 g>f f4- | f8- | fB e2- efdc | %85
 d2 c>B B2 z b | baag gf z g | gffe dB B2- | B6 Be | eddf feeg | gc fg/a/ d2 z b | be a2- abgf | %92
 g2 f>e e2 z g | gffg a2 z a | g>a f3/2e/4f/4 gd e2 | z =e f2 z _g =g2 | z gc'b agfe | %97
 dG c2 z G c2 | z g c'2 c2 d3/2c/4d/4 | e2 z f dB z e | c2 z d =BG g2- | gfed d4- | deff fged | %103
 e2 d>c c2 z c' | c'bcb baca | ag z g gf z f | f=e z e ef z f | fg e>d d2 z2 | z4 z2 z g | %109
 gfGf feGe | ed z d c2 d3/2c/4d/4 | e2 z f d2 z e | c2 z d =Bagf | e2 d2 d4- | deff f>g e>f | %115
 e2 d>c c4 |][M:3/2][Q:1/4=88]"^III. Largo" G2 G2 G2 G2 G2- G/A/B | F2 F2 F2 F2 F2- F/G/A | %118
 G2 G2 G2 G2 G2- G/A/B | F2 F2 F2 F2 F2- F/G/A | G4 B4 c2 B2 | B12- | B12 | z4 e8- | %124
 e4 d3 c B2 a2 | g3 f e8 | z4 f4 b4 | e8 z4 | z4 d4 g4 | c8 f4 | d4 B4 e4 | a6 g2 a2 b2 | %132
 g4 g4 c'4 | f8 b2 g2 | e6 d2 e2 f2 | d4 f8- | f2 g2 e6 e2 | e6 f2 d4- | d2 e2 c6 B2 | B12- | B12 | %141
 z4 a8- | a8 g4- | g4 f2 e2 d2 c2 | =B6 =A2 G4 | z4 g4 a4 | =e3 d c8 | z4 g4 a4 | d3 c B8 | %149
 z4 b4 =a4 | _g6 d2 B4- | B2 g2 B4 =A3 G | G4 e8- | e4 d3 c B2 a2 | g4 c8- | c4 =B3 =A G2 f2 | %156
 e4 c4 a4- | a2 f2 d2 B2 g4- | g2 a2 f6 g2 | g12 |][M:3/4][Q:1/4=144]"^IV. Allegro" z2 g2 d2 | %161
 e2 =B4 | c2 a4 | g2 fe dc | =B=A G2 z2 | z6 | z6 | z6 | z2 d2 e>f | d4 z2 | z2 f2 g>a | f6 | z6 | %173
 z2 b2 f2 | g2 d4 | e2 c2 f2 | d2 B2 e2- | ef d3 e | e6 | z6 | z6 | z2 e2 d2 | z2 g2 f2 | %183
 z2 e2 d2 | z2 g2 f2 | ed ef ga | fe fg ab | gb ag fe | b6- | b6- | b6- | b2 e2 a2- | ab gf ga | %193
 f2 e2 d2 | z2 g2 f2 | z2 a2 g2 | z2 c'b ag | f2 b2 gf | ga g2 fe | e2 z2 z2 | z6 | B=A Bc de | %202
 cB cd ef | dc d=e f2- | fg =e4 | f2 cd ef | dc de fg | eg fe dc | g2 z2 z2 | z6 | z2 c'2 g2 | %211
 a2 =e4 | f3 a gf | =e2 c2 f2- | fg =e3 f | f2 d2 c2 | z2 e2 d2 | z2 gf ed | c2 f4- | f6- | f6- | %221
 f6- | f6- | f6- | fe dc B=A | Gg =ab c'b | =af ga bc | de c3 B | B2 d'2 =a2 | b2 _g4 | g2 d4 | %231
 ef ed cB | =A2 z2 z2 | z2 dc B=A | B=A Bc de | cB cd ef | dc d=e fg | =ed e_g =g=a | _g2 d2 c2 | %239
 z2 e2 d2 | c2 =A2 B2- | Bc =A3 G | G2 e2 d2 | z2 f2 e2 | z2 g2 f2 | z2 ag fe | d2 g4- | g6- | %248
 g6- | g6- | g6- | g6- | gf ed ec | a6- | af ba gf | g6- | ge ag f=e | f6- | fd gf ed | eg c'b ag | %260
 ag fe dc | =B2 d2 e>f | d4 z2 | z2 f2 g>a | f4 z2 | z6 | z6 | z2 c'2 g2 | a2 =e4 | f6- | %270
 f3 g e2- | ed d3 c | c2 e2 d2 | z2 f2 =e2 | z2 g2 f2 | f6 | z a gf ed | e2 =B4 | c6- | c6- | %280
 ce de fd | =B2 G3 B | cd =B3 c | c2 a2 gf | f3 g e2- | ed d3 c | c6 |] %287
V:2
 z8 | z8 | z8 | z8 | z8 | ce/>d/ cc c/>=B/c z g/d/ | de/f/ ed e/d/c z b/f/ | %7
 fg/a/ g>f g/f/e z/ g/c'/>g/ | f/>e/d z/ f/b/>f/ e/>d/c z/ e/a/>e/ | %9
 e/>d/g/>d/ d/>c/f/>c/ =B/>G/f- f/f/e/>d/ | e/d/c g2- g/>e/f- f/>d/e | %11
 d/>B/c/>d/ z e z/ c/d/e/ z f | z3/4 d/4e z3/4 c/4d z3/4 F/4G z3/4 E/4F | %13
 z3/4 D/4E z3/4 C/<D/C/4 D/>C/D/>E/ C>D | D2 z2 eg/>f/ ee | e/>d/e ed e3/2 z/4 G/4 c2 | %16
 z z3/4 F/4 B2 z z3/4 E/4 A2 | z3/4 G/<g/d/4 cB/g/ _g>=a d'2 | z z3/4 g/4 c'2 z z3/4 f/4 b2- | %19
 bb/=a/ a/g/g/_g/ gd z3/4 B/4c | z3/4 =A/4B z3/4 A/<B/A/4 B/>A/B/>c/ A>G | G=B/>=A/ GG G2 z2 | %22
 df/>e/ dd e/d/c z/ G/A/B/ | C/c/B/A/ Gc A/B/c z/ B/c/d/ | z e z/ c/=B/c/ z d z/ d/c/B/ | %25
 z c z/ c/=B/c/ z/ c/B/c/ z/ c/B/c/ | =B/>c/B/>c/ B/>c/B/>c/ B2 z2 | a4 g3/2 z/4 G/4 c2 | %28
 z z3/4 F/4 B2 z z3/4 E/4 A2- | A G2 F f>a g/f/e/d/ | c/=B/c cB c2 z2 | ce/>d/ cc c3 c | %32
 =BG e4- ed- | dc/>=B/ c2- c/B/c cB | c2 z B c/B/B/A/ A/G/A/B/ | G2 z A/>G/ FE/D/ D>C | %36
 C2 z/ c/d/e/ d2 z e | c4 =B4 |][M:4/4] z8 | z8 | z8 | z8 | z8 | z8 | z8 | c2 d2 e2 z f | %46
 dB z e c2 z d | =BG g2- gfed | cB A2- AGcd | =B2 Gc cBBd | dcce eddf | e3 f d3 e | cBAG F2 B2- | %53
 B8- | B6 Be | eddf feeg | gffe dB e2- | e2 d2 eE F3/2E/4F/4 | GBcd eB c2- | cF B4 AG | c3 B AGFE | %61
 D2 z d G2 e2- | eedc Bc d2 | cB=AG _GDD=G | G_GG=A A=GGB | B=AAc BABG | d8- | d4- dG c2 | %68
 cF B4 =A2 | =AAGF =E_G=GA | _GD =G4 _G2 | G2 z e eddc | c=B z G GFFE | ED z2 z4 | z2 Gc c=BBd | %75
 dcce eddc | =B2 =B,E EDDF | FEEc c=BBd | dccB BAAc | cBBG c2 cf | f=eeg gffe | f3 g =eg f2- | %82
 f2 =e2 f2 FB | B=AAc cBBd | G2 Gc =AF B2- | B2 =A2 B2 z g | gffe ed z B | BAAG F2 DG | GFFA AGGB | %89
 BAAA AGGB | c2 z f F2 z B | e2 z c df e2- | e2 d2 e2 z e | edde c2 z f | ed c2 =B2 z B | %95
 c2 z c d2 z d | e2 z g cedc | =B2 z G c2 z G | c2 z g c'cc=B | cG A2 z BGE | z AFD z =B,CD | %101
 Gdc=B c4- | cc=Bc dB c2- | c2 =B2 c2 z2 | z4 z2 z c | cBCB BACA | AG z G GF z c | =B2 c>B B2 z g | %108
 gfGf feGe | edGd dcGc | c=B z B c2 B3/2=A/4B/4 | cG A2 z F G2 | z E F2 z =Bcd | c2 =B2 c4- | %114
 cc=Bc dB c2- | c2 =B2 c4 |][M:3/2] E2 E2 E2 E2 E2 E2 | E2 E2 E2 E2 E2 E2 | E2 E2 E2 E2 E2 E2 | %119
 E2 E2 E2 E2 E2 E2 | E4 z4 z4 | G2 G2 G2 G2 G2 G2 | F2 F2 F2 F2 F2 F2 | c2 c2 c2 c2 c2 c2 | %124
 c2 c2 B2 B2 B2 B2 | B2 B2 B2 B2 B2 B2 | B2 B2 B2 B2 B2 B2 | c2 c2 E2 E2 A2 A2 | %128
 A2 A2 A2 A2 G2 G2 | E2 E2 F2 F2 F2 F2 | F2 F2 E2 E2 c2 c2 | c2 c2 d2 d2 d2 d2 | %132
 e2 e2 e2 e2 c2 c2 | f2 f2 B2 B2 B2 B2 | B2 B2 =A2 A2 A2 A2 | B2 B2 B2 B2 B2 B2 | %136
 B2 B2 B2 B2 B2 B2 | =A2 A2 c2 c2 B2 B2 | B2 B2 B2 B2 =A2 A2 | B2 F2 G2 G2 G2 GA | %140
 F2 F2 F2 F2 F2 F2 | E2 E2 E2 E2 F2 F2 | F2 F2 F2 F2 G2 G2 | c2 c2 c2 c2 d2 d2 | %144
 d2 D2 G2 F2 E2 D2 | C2 G2 c2 c2 c2 c2 | c2 c2 c2 c2 c2 c2 | c2 c2 c2 c2 c2 c2 | %148
 B2 B2 B2 B2 B2 B2 | B2 B2 d2 d2 c2 c2 | c2 c2 =A2 A2 B2 B2 | B2 B2 G4 _G3 =G | G2 G2 G2 G2 G2 G2 | %153
 F2 F2 F2 F2 F2 F2 | E2 E2 E2 E2 E2 E2 | D2 D2 D2 D2 D2 D2 | C2 C2 c2 c2 c2 c2 | %157
 d2 d2 d2 d2 B2 e2 | c12 | =B12 |][M:3/4] z6 | z6 | z6 | z6 | z2 g2 d2 | e2 =B4 | c2 a4 | %167
 g2 fe dc | =B2 B2 c>d | =B4 z2 | z2 d2 e>f | d6 | z2 b2 f2 | g2 d4 | e2 B4- | B2 AG A2- | %176
 A2 GF G2- | GA F3 E | ED EF GA | FE FG AB | GB AG FE | B6- | B6- | B6- | B6 | e6- | e4 d2 | %187
 e2 B2 c2 | D2 e2 d2 | z2 g2 f2 | z2 e2 d2 | cB cd ef | d2 ed ef | d2 G2 F2 | z2 e2 d2 | z2 f2 e2 | %196
 z2 ag fe | dc dB ed | ef e2 d2 | eD EF GA | FE FG AB | GF G=A B2 | B4 =A2 | B2 FG AB | GF GA Bc | %205
 AG AB c2 | c4 =B2 | c2 z2 z2 | z2 g2 d2 | e2 =B4 | c6- | c6- | c2 B4- | B2 AG A2- | AB G3 F | %215
 F2 B2 =A2 | z2 c2 B2 | z2 ed cB | =AG FG AB | GF G=A Bc | =AG AB cd | B=A Bc de | ce dc de | %223
 ce dc de | c2 f4 | f2 B2 e2- | e2 dc d=A | Bc =A3 B | B2 z2 z2 | z2 d2 =A2 | B2 =B4 | cd cB =AG | %232
 _G2 =A=G _G=E | D2 =A4- | A2 G2 B2 | B4 =A2- | A2 G4 | G2 c4 | c2 B2 =A2 | z2 c2 B2 | %240
 =A2 _G2 =G2- | G=A _G3 =G | G2 c2 =B2 | z2 d2 c2 | z2 e2 d2 | z2 fe dc | =B=A GA Bc | =AG A=B cd | %248
 =B=A Bc de | c=B cd ef | df ed ef | df ed ef | d2 g4- | gc fe dc | d6- | dB ed c=B | c6- | %257
 ce dc =B=A | =B6 | z2 g2 e2 | cB AG FE | D2 =B2 c>d | =B4 z2 | z2 d2 e>f | d4 z2 | z2 g2 d2 | %266
 e2 =B4 | c6- | c6- | c2 _d2 c2 | =B2 G2 z B | c2 c2 =B2 | c2 c2 =B2 | z2 d2 c2 | z2 e2 d2 | d6 | %276
 z6 | z6 | z _d' c'b ag | a2 =e4 | f6- | f3 g ed | ef d3 c | c2 c2 d2 | =B3 B c2 | c2 c2 =B2 | %286
 c6 |] %287
V:3
 C2 B,2 A,2 E,2 | F,2 G,2 C,2 G,2 | A,2 B,2 E,2 E2 | D,2 D2 C,2 C2 | B,2 A,2 G,>=A, =B,>G, | %5
 C2 B,2 A,2 E,2 | F,2 G,2 C,2 G,2 | A,2 B,2 E,2 E2 | D,2 D2 C,2 C2 | B,2 A,2 G,2 G,,2 | %10
 C,2 C2 F,DEE, | B,2 E,2 A,2 F,2 | B,2 B,2 B,2 B,2 | E,2 E,2 F,E,F,F,, | %14
 B,,/>B,,/C,/>D,/ E,/>E,/F,/>G,/ C,2 G,,2 | A,,2 B,,2 E,2 E2 | D,2 D2 C,2 C2 | B,,B,=A,G, D2 B,2 | %18
 G,2 =A,2 B,2 G,2 | E,2 C,2 D,2 D,2 | D,2 C,2 D,C,D,D,, | G,,2 F,2 E,2 A,2 | F,2 G,2 C,2 B,2 | %23
 A,B,CC, F,2 B,2 | E,2 A,2 F,2 G,2 | C2 A,2 E,2 F,2 | G,2 z2 z/ G,/=A,/>=B,/ C/>C,/D,/>E,/ | %27
 F,,/>F,/G,/>A,/ B,/>B,,/C,/>D,/ E,2 E2 | D,2 D2 C,2 C2 | B,2 A,2 G,2 =B,,2 | C,F,G,G,, C2 B,2 | %31
 A,2 G,2 F,2 A,2 | G,2 G,,2 A,G,F,B,, | E,2 z F,/>E,/ D,C,G,G,, | C,2 z G, A,G,F,B,, | %35
 E,2 z F,/>E,/ D,C,G,G,, | C,2 z F,, B,,2 z E, | A,4 G,4 |][M:4/4] C,C=B,G, CC,A,F, | %39
 B,B,,G,E, A,G,A,F, | G,F,E,D, C,F,G,G,, | C,2 z D, E,C,A,F, | G,F,E,C, G,2 z F, | %43
 E,2 z C, G,2 =B,G, | C2 B,A, G,F,E,D, | E,C,G,G,, C,CF,A, | B,,D,E,G, A,A,,A,F, | %47
 G,F,E,D, C,F,G,G,, | C,2 z D, E,2 z F, | G,F,E,C, G,2 z F, | E,2 C,C C=B,B,G, | %51
 CC,F,F,, B,,D,E,G, | A,2 z A, B,A,G,E, | B,2 z A, G,2 z E, | D,2 z B,, E,EDC | B,2 z A, G,2 z E, | %56
 A,2 z F, B,G,CA, | B,A,B,B,, E,G,,A,,B,, | E,G,A,B, E,EA,C | _DCDB, C3 B, | A,B,CC, F,E,D,C, | %61
 =B,,2 z =B, CB,=A,G, | _G,2 z D, G,,=A,,B,,G,, | C,2 z C, D,2 B,,G,, | D,2 z C, B,,2 G,,G, | %65
 G,_G,G,=A, =G,_G,=G,E, | D,2 DC B,2 z G, | G,_G,=G,B,, C,B,=A,_G, | B,=A,B,G, A,G,_G,D, | %69
 G,=A,B,B,, C,D,E,C, | D,B,,E,C, D,C,D,D,, | G,,4 G,4- | G,8- | G,8- | G,8- | G,8- | %76
 G,2 G,,C, C,=B,,B,,D, | D,C,C,E, E,D,D,F, | F,=E,E,G, G,F,F,A, | A,G,G,B, B,A,A,F, | C6- CC | %81
 _D3 B, C=E,F,B,, | C,B,,C,C, F,,F,D,B,, | F,2 F,E, D,2 D,B,, | E,2 E,C, F,D,G,E, | %85
 F,E,F,F,, B,,4- | B,,8- | B,,6 B,,E, | E,D,D,F, F,E,E,G, | G,F,B,B,, E,2 z E, | %90
 A,2 z F, B,A,B,G, | CC,F,A, B,D,E,A, | B,A,B,B,, E,F,G,E, | B,2 z B,, F,G,A,F, | %94
 CB, A,2 G,2 z G, | A,2 z =A, B,2 z =B, | C2 z E, F,G,A,F, | G,2 E,2 F,2 G,2 | A,2 E,2 F,E,F,G, | %99
 C,CF,A, B,D,E,G, | A,CD,F, G,F,E,D, | C,F,G,G,, A,3 G, | F,E,D,C, =B,,G,A,F, | G,2 G,,2 C,4- | %104
 C,8- | C,4 C,3 C | CB,C,B, B,A,C,A, | G,2 C,2 G,,4 | G,8- | G,6 z G, | G,F,G,,F, F,E,D,G, | %111
 C,2 F,2 B,2 E,2 | A,3 F, G,F,E,F, | G,2 G,,2 A,3 G, | F,E,D,C, =B,,G,A,F, | G,2 G,,2 C,4 |] %116
[M:3/2] E,4 G,4 E,4 | A,4 F,4 B,4 | E,4 G,4 E,4 | A,4 F,4 B,4 | E,4 z4 z4 | E,4 G,4 E,4 | %122
 D,4 B,4 D,4 | C,4 C4 B,4 | A,4 B,4 B,,4 | E,4 G,4 E,4 | D,4 D4 D,4 | C,4 C4 C,4 | D,4 B,,4 E,4 | %129
 A,,4 A,8- | A,4 G,4 C4 | F,4 B,4 B,,4 | E,4 E8- | E4 D4 G,4 | C,4 F,4 F,,4 | B,,4 B,4 A,4 | %136
 G,8 C4 | F,4 =A,4 B,4 | E,4 F,4 F,,4 | B,,4 E,4 E,4 | D,4 B,4 D,4 | C,4 C4 F,4 | B,4 B,,4 E,4 | %143
 A,8 F,4 | G,4 G,,4 F,4 | =E,8 F,4 | C,4 =E,4 F,4 | C,4 =E,4 F,4 | B,,4 D,4 E,4 | B,,4 G,,4 C,4 | %150
 D,4 _G,4 =G,4 | C,4 D,4 D,,4 | G,,4 C4 G,4 | A,4 B,4 B,,4 | E,4 A,4 E,4 | F,4 G,4 G,,4 | %156
 C,4 A,,4 F,,4 | B,,4 B,4 E,4 | A,12 | G,12 |][M:3/4] C,2 E,2 G,2 | C2 G,4 | A,2 F,2 B,2 | %163
 E,2 A,2 F,2 | G,2 =B,2 G,2 | C2 G,4 | A,2 F,2 B,2 | E,2 A,2 F,2 | G,4 C,2 | G,,2 G,2 C,2 | %170
 B,,4 E,2 | B,,2 B,2 A,2 | G,4 B,2 | E,2 B,,4 | E,2 G,4 | C,2 F,2 F,,2 | B,,2 E,2 C,2 | %177
 A,,2 B,,2 B,,2 | E,,2 G,2 E,2 | A,2 F,2 B,2 | E,2 D,2 C,2 | B,,2 G,2 F,2 | E,2 E2 D2 | %183
 E2 G,2 F,2 | E,4 D,2 | C,2 C2 G,2 | A,2 F,2 B,2 | E2 D2 C2 | B,2 G,2 F,2 | E,4 D,2 | G,4 F,2 | %191
 E,4 F,2 | B,,2 E,4 | B,2 z2 z2 | B,2 z2 z2 | B,2 z2 z2 | B,2 z2 z2 | B,2 G,2 C2 | A,2 B,2 B,,2 | %199
 E,2 G,2 E,2 | A,2 F,2 B,2 | E,4 B,,2 | F,4 F,,2 | B,,2 B,2 F,2 | C2 C,4 | F,4 C,2 | G,4 G,,2 | %207
 C,2 A,,4 | G,,2 =B,2 G,2 | C2 G,4 | A,2 =E,4 | F,2 C,4 | _D,4 B,,2 | C,2 F,2 _D,2 | B,,2 C,4 | %215
 F,,2 z2 z2 | F,2 z2 z2 | F,2 z2 z2 | F,2 z2 z2 | z2 E,2 D,2 | C,2 F,2 E,2 | D,2 F,2 B,2 | %222
 =A,C B,A, B,C | =A,C B,A, B,C | =A,2 F,2 B,2 | E,4 C,2 | F,2 B,2 G,2 | E,2 F,2 F,,2 | B,,4 D,2 | %229
 G,2 D4 | G,2 G,,4 | C2 C,2 C2 | D,2 D2 =A,2 | B,2 _G,4 | G,2 G,2 D,2 | E,2 C,2 F,2 | %236
 B,,2 B,2 G,2 | C,2 C2 =A,2 | D2 z2 z2 | D2 z2 z2 | D2 D,2 G,2 | C,2 D2 D,2 | G,2 z2 z2 | %243
 G,2 z2 z2 | G,2 z2 z2 | G,2 z2 z2 | G,2 z2 z2 | z2 F,2 E,2 | D,2 G,2 F,2 | E,2 G,2 C2 | %250
 =B,D CB, CD | =B,D CB, CD | =B,2 G,2 C2 | F,2 A,2 F,2 | B,2 D,2 B,,2 | E,2 G,2 E,2 | A,2 C2 A,2 | %257
 D,2 F,2 D,2 | G,2 =B,2 G,2 | C,2 E,2 C,2 | F,2 F,,2 F,2 | G,2 G,,2 C,2 | G,2 G,,2 C,2 | B,,4 E,2 | %264
 B,2 D,2 B,,2 | E,4 G,2 | C2 G,4 | A,2 =E,4 | F,2 G,4 | A,2 F,2 A,2 | G,2 =B,2 C2 | F,2 G,2 G,,2 | %272
 C,2 C2 G,2 | G,,2 z2 z2 | G,,2 z2 z2 | G,6 | z2 =B,2 G,2 | C2 G,4 | A,4 =E,2 | F,2 G,4 | %280
 A,2 F,2 A,2 | G,2 =B,2 C2 | F,2 G,2 G,,2 | C,2 F,2 A,2 | G,2 G,,2 C,2 | F,2 G,2 G,,2 | C,6 |] %287

